X:1
T:James Gibb editions
T:The roseate hues of early dawn - Barnby
%%score [ ( 1 2 ) ( 3 4 ) ]
L:1/8
Q:1/4=84
M:4/4
K:Eb
V:1 treble nm="Midi_74"
V:2 treble 
V:3 bass nm="Midi_74"
V:4 bass 
V:1
"^(D.C.M.)""^The roseate hues of early dawn""^Joseph Barnby\n(1838-96)""^Mrs C. F. Alexander\n(1818-95)" B2 | %1
 B2 A2 G2 G2 | G2 F2 E2 || E2 | A2 A2 A2 GF | G6 || G2 | F2"^1" F2 B2 =A2 |[M:4/4] =A3 G G2 || G2 | %10
 F2 B2 B2 =A2 | B8 ||"^-" B2 BB A2 G2 | F2 G2 A4 || _d2 dd c2"^1" B2 |"^;i" c8 || %16
"^1" F2 FF!<(! G2 A2 |"^1" B2!<)!"^1" e2"^I" d2 || c2 | B2 E2 G2 F2 | E6 || E4 E4 |] %22
V:2
 G2 | G2 F2 B,2 B,2 | C2 D2 E2 || E2 | C2 F2 F2 D2 | E6 || B,2 | C2 C2 F2 ^F2 |[M:4/4] ^F3 G2 x || %9
 C2 | D2 F2 F2 F2 | F8 || E2 EE =E2 E2 | F2 =E2 F4 || F2 FF E2 E2 | E8 || D2 DD E2 D2 | E2 E2 F2 || %18
 E2 | E2 E2 E2 D2 | E6 || C4 B,4 |] %22
V:3
 B,2 | C2 D2 E2 B,2 | B,2 A,2 G,2 || G,2 | F,2 C2 B,2 B,2 | B,6 || B,2 | B,2 =A,2 B,2 C2 | %8
[M:4/4] C3 B, B,2 || B,2 | B,2 CD C2 E2 | D8 ||"^-" E2 B,B, C2 C2 | C2 C2 C4 || %14
 B,2"^1" A,A, G,2 G,2 | %15
"^1 The roseate hues of early dawn,\nThe brightness of the day,\nThe crimson of the sunset sky,\nHow fast they fade away!\nO for the pearly gates of heav'n!\nO for the golden floor!\nO for the Sun of Righteousness\nThat setteth nevermore!" A,8 || %16
 B,2 B,B, B,2 B,2 | %17
 B,2"^3 Here faith is ours, and heavenly hopes,\nAnd grace to lead us higher:\nBut there are perfectness and peace\nBeyond our great desire.\nO by Thy love and anguish, Lord,\nO by Thy life laid down,\nO that we fall not from Thy grace,\nNor cast away our crown!" B,2"^1" =B,2 || %18
"^2 The highest hopes we cherish here,\nHow fast they tire and faint!\nHow many a spot defiles the robe\nThat wraps an earthly saint!\nO for a heart that never sins!\nO for a soul washed white!\nO for a voice to praise our King,\nNor weary day or night!" C2 | %19
 G,2 A,2 B,2 A,2 | G,6 || A,4 [E,G,]4 |] %22
V:4
 E,2 | E,2 E,2 E,2 G,,2 | A,,2 B,,2 C,2 || C,2 | F,2 E,2 D,2 B,,2 | E,6 || E,2 | E,2 E,2 D,2 D,2 | %8
[M:4/4] E,3 E, E,2 || =E,2 | F,2 F,2 F,2 F,2- | B,8 || G,2 G,G, C2 B,2 | A,2 G,2 F,4 || %14
 B,,2 B,,B,, E,2 E,2 | A,,8 || A,2 A,A, G,2 F,2 | G,2 G,,2 A,,2 || A,,2 | B,,2 C,2 B,,2 B,,2 | %20
 E,6 || A,,4 E,,4 |] %22

